lib/brands/icons/uc.svg

<svg xmlns="http://www.w3.org/2000/svg" fill="none" aria-hidden="true" viewBox="0 0 48 48"><g id="uc-Icon"><g id="uc"><path fill="white" d="M3 11.4414C4.22758 8.62758 8.52411 3 15.8896 3C25.2746 3 25.631 10.0741 25.631 12.5709C25.631 18.0699 21.767 20.7165 17.8824 23.3771C13.9562 26.0662 10.0091 28.7696 10.0091 34.4471C10.0091 41.4617 15.7906 44.8304 18.6813 44.9096C4.60377 44.9096 3.1782 34.8632 3.1782 32.9015C3.1782 27.3273 5.80377 24.3271 8.17541 21.617C10.1288 19.385 11.9098 17.3498 11.9098 14.2353C11.9098 8.05293 4.42558 9.18241 3 11.4414Z"/><path fill="url(#paint0_linear_94_20632)" d="M3 11.4414C4.22758 8.62758 8.52411 3 15.8896 3C25.2746 3 25.631 10.0741 25.631 12.5709C25.631 18.0699 21.767 20.7165 17.8824 23.3771C13.9562 26.0662 10.0091 28.7696 10.0091 34.4471C10.0091 41.4617 15.7906 44.8304 18.6813 44.9096C4.60377 44.9096 3.1782 34.8632 3.1782 32.9015C3.1782 27.3273 5.80377 24.3271 8.17541 21.617C10.1288 19.385 11.9098 17.3498 11.9098 14.2353C11.9098 8.05293 4.42558 9.18241 3 11.4414Z"/><path fill="white" d="M24.8588 20.9528C26.72 20.2989 31.0838 18.456 33.6499 16.316C33.4123 13.8192 34.3627 11.3819 35.3724 10.4308C36.6198 11.5008 37.2732 13.4427 37.4514 14.592C39.6492 15.1865 44.1754 17.6951 44.6981 22.9739C44.8406 23.9251 44.7575 24.9951 44.6981 25.4112C44.0645 25.7085 42.2627 26.184 39.8868 25.9463C38.4058 25.7981 37.3825 25.1842 36.0806 24.4032C34.7717 23.618 33.1813 22.6639 30.5611 21.8445C27.71 20.9528 25.334 20.9528 24.8588 20.9528Z"/><path fill="url(#paint1_linear_94_20632)" d="M24.8588 20.9528C26.72 20.2989 31.0838 18.456 33.6499 16.316C33.4123 13.8192 34.3627 11.3819 35.3724 10.4308C36.6198 11.5008 37.2732 13.4427 37.4514 14.592C39.6492 15.1865 44.1754 17.6951 44.6981 22.9739C44.8406 23.9251 44.7575 24.9951 44.6981 25.4112C44.0645 25.7085 42.2627 26.184 39.8868 25.9463C38.4058 25.7981 37.3825 25.1842 36.0806 24.4032C34.7717 23.618 33.1813 22.6639 30.5611 21.8445C27.71 20.9528 25.334 20.9528 24.8588 20.9528Z"/><path fill="white" d="M27.0566 22.9145C23.2551 22.2487 20.2455 23.1919 19.2159 23.7467C27.6268 22.8432 32.4223 28.9186 33.7687 32.0692C33.6301 32.4061 35.4912 32.5448 36.3228 32.5448C37.2101 32.5448 38.5199 32.0373 39.7653 31.5547C40.8546 31.1327 41.8946 30.7297 42.5597 30.702C43.7002 30.6544 44.6585 31.1181 44.9951 31.3559C45.0347 30.9001 44.8525 29.7627 43.8071 28.8591C43.1059 28.253 42.1651 28.1947 41.0217 28.1238C40.0343 28.0626 38.8957 27.992 37.6296 27.5513C36.637 27.2058 35.5973 26.6092 34.4479 25.9496C32.4335 24.7937 30.0822 23.4444 27.0566 22.9145Z"/><path fill="url(#paint2_linear_94_20632)" d="M27.0566 22.9145C23.2551 22.2487 20.2455 23.1919 19.2159 23.7467C27.6268 22.8432 32.4223 28.9186 33.7687 32.0692C33.6301 32.4061 35.4912 32.5448 36.3228 32.5448C37.2101 32.5448 38.5199 32.0373 39.7653 31.5547C40.8546 31.1327 41.8946 30.7297 42.5597 30.702C43.7002 30.6544 44.6585 31.1181 44.9951 31.3559C45.0347 30.9001 44.8525 29.7627 43.8071 28.8591C43.1059 28.253 42.1651 28.1947 41.0217 28.1238C40.0343 28.0626 38.8957 27.992 37.6296 27.5513C36.637 27.2058 35.5973 26.6092 34.4479 25.9496C32.4335 24.7937 30.0822 23.4444 27.0566 22.9145Z"/><path fill="white" fill-rule="evenodd" d="M19.3347 42.8885C22.7793 42.8885 25.5716 40.0939 25.5716 36.6466C25.5716 33.1993 22.7793 30.4047 19.3347 30.4047C15.8902 30.4047 13.0978 33.1993 13.0978 36.6466C13.0978 40.0939 15.8902 42.8885 19.3347 42.8885ZM19.3347 39.4406C20.8766 39.4406 22.1265 38.1897 22.1265 36.6466C22.1265 35.1035 20.8766 33.8526 19.3347 33.8526C17.7929 33.8526 16.543 35.1035 16.543 36.6466C16.543 38.1897 17.7929 39.4406 19.3347 39.4406Z" clip-rule="evenodd"/><path fill="url(#paint3_linear_94_20632)" fill-rule="evenodd" d="M19.3347 42.8885C22.7793 42.8885 25.5716 40.0939 25.5716 36.6466C25.5716 33.1993 22.7793 30.4047 19.3347 30.4047C15.8902 30.4047 13.0978 33.1993 13.0978 36.6466C13.0978 40.0939 15.8902 42.8885 19.3347 42.8885ZM19.3347 39.4406C20.8766 39.4406 22.1265 38.1897 22.1265 36.6466C22.1265 35.1035 20.8766 33.8526 19.3347 33.8526C17.7929 33.8526 16.543 35.1035 16.543 36.6466C16.543 38.1897 17.7929 39.4406 19.3347 39.4406Z" clip-rule="evenodd"/><path fill="white" d="M12.7414 31.1002C13.5748 29.0631 16.2302 25.5301 21.2355 25.5301C27.8288 25.5301 32.2243 31.237 32.2243 37.1222C32.2243 38.7272 31.2739 41.2834 31.2739 41.2834C34.0063 41.2834 37.095 42.9479 37.095 44.4935C34.1133 44.8446 28.427 45.0805 21.5654 44.9744C25.2408 43.9909 27.9476 40.6351 27.9476 36.6466C27.9476 31.8861 24.0915 28.0269 19.3347 28.0269C16.6887 28.0269 14.3214 29.221 12.7414 31.1002Z"/><path fill="url(#paint4_linear_94_20632)" d="M12.7414 31.1002C13.5748 29.0631 16.2302 25.5301 21.2355 25.5301C27.8288 25.5301 32.2243 31.237 32.2243 37.1222C32.2243 38.7272 31.2739 41.2834 31.2739 41.2834C34.0063 41.2834 37.095 42.9479 37.095 44.4935C34.1133 44.8446 28.427 45.0805 21.5654 44.9744C25.2408 43.9909 27.9476 40.6351 27.9476 36.6466C27.9476 31.8861 24.0915 28.0269 19.3347 28.0269C16.6887 28.0269 14.3214 29.221 12.7414 31.1002Z"/></g></g><defs><linearGradient id="paint0_linear_94_20632" x1="40.5882" x2="4.14706" y1="3.88235" y2="44.5588" gradientUnits="userSpaceOnUse"><stop stop-color="#FCA336"/><stop offset="1" stop-color="#FC7625"/></linearGradient><linearGradient id="paint1_linear_94_20632" x1="40.5882" x2="4.14706" y1="3.88235" y2="44.5588" gradientUnits="userSpaceOnUse"><stop stop-color="#FCA336"/><stop offset="1" stop-color="#FC7625"/></linearGradient><linearGradient id="paint2_linear_94_20632" x1="40.5882" x2="4.14706" y1="3.88235" y2="44.5588" gradientUnits="userSpaceOnUse"><stop stop-color="#FCA336"/><stop offset="1" stop-color="#FC7625"/></linearGradient><linearGradient id="paint3_linear_94_20632" x1="40.5882" x2="4.14706" y1="3.88235" y2="44.5588" gradientUnits="userSpaceOnUse"><stop stop-color="#FCA336"/><stop offset="1" stop-color="#FC7625"/></linearGradient><linearGradient id="paint4_linear_94_20632" x1="40.5882" x2="4.14706" y1="3.88235" y2="44.5588" gradientUnits="userSpaceOnUse"><stop stop-color="#FCA336"/><stop offset="1" stop-color="#FC7625"/></linearGradient></defs></svg>

<svg xmlns="http://www.w3.org/2000/svg" fill="none" aria-hidden="true" viewBox="0 0 48 48"><path fill="#fff" d="M3 11.441C4.228 8.628 8.524 3 15.89 3c9.385 0 9.741 7.074 9.741 9.57 0 5.5-3.864 8.146-7.749 10.807-3.926 2.69-7.873 5.393-7.873 11.07 0 7.015 5.782 10.383 8.672 10.463-14.077 0-15.503-10.047-15.503-12.008 0-5.575 2.626-8.575 4.997-11.285 1.954-2.232 3.735-4.267 3.735-7.382 0-6.182-7.484-5.053-8.91-2.794Z"/><path fill="url(#a)" d="M3 11.441C4.228 8.628 8.524 3 15.89 3c9.385 0 9.741 7.074 9.741 9.57 0 5.5-3.864 8.146-7.749 10.807-3.926 2.69-7.873 5.393-7.873 11.07 0 7.015 5.782 10.383 8.672 10.463-14.077 0-15.503-10.047-15.503-12.008 0-5.575 2.626-8.575 4.997-11.285 1.954-2.232 3.735-4.267 3.735-7.382 0-6.182-7.484-5.053-8.91-2.794Z"/><path fill="#fff" d="M24.859 20.953c1.861-.654 6.225-2.497 8.79-4.637-.237-2.497.714-4.934 1.723-5.885 1.248 1.07 1.901 3.012 2.08 4.161 2.197.595 6.723 3.103 7.246 8.382.143.951.06 2.021 0 2.437-.633.297-2.435.773-4.811.535-1.481-.148-2.505-.762-3.806-1.543-1.31-.785-2.9-1.74-5.52-2.558-2.851-.892-5.227-.892-5.702-.892Z"/><path fill="url(#b)" d="M24.859 20.953c1.861-.654 6.225-2.497 8.79-4.637-.237-2.497.714-4.934 1.723-5.885 1.248 1.07 1.901 3.012 2.08 4.161 2.197.595 6.723 3.103 7.246 8.382.143.951.06 2.021 0 2.437-.633.297-2.435.773-4.811.535-1.481-.148-2.505-.762-3.806-1.543-1.31-.785-2.9-1.74-5.52-2.558-2.851-.892-5.227-.892-5.702-.892Z"/><path fill="#fff" d="M27.057 22.915c-3.802-.666-6.811.277-7.841.832 8.41-.904 13.206 5.172 14.553 8.322-.139.337 1.722.476 2.554.476.887 0 2.197-.508 3.442-.99 1.09-.422 2.13-.825 2.795-.853 1.14-.048 2.098.416 2.435.654.04-.456-.142-1.593-1.188-2.497-.701-.606-1.642-.664-2.785-.735-.988-.061-2.126-.132-3.392-.573-.993-.345-2.033-.942-3.182-1.601-2.014-1.156-4.366-2.506-7.391-3.035Z"/><path fill="url(#c)" d="M27.057 22.915c-3.802-.666-6.811.277-7.841.832 8.41-.904 13.206 5.172 14.553 8.322-.139.337 1.722.476 2.554.476.887 0 2.197-.508 3.442-.99 1.09-.422 2.13-.825 2.795-.853 1.14-.048 2.098.416 2.435.654.04-.456-.142-1.593-1.188-2.497-.701-.606-1.642-.664-2.785-.735-.988-.061-2.126-.132-3.392-.573-.993-.345-2.033-.942-3.182-1.601-2.014-1.156-4.366-2.506-7.391-3.035Z"/><path fill="#fff" fill-rule="evenodd" d="M19.335 42.889a6.24 6.24 0 0 0 6.237-6.242 6.24 6.24 0 0 0-6.237-6.242 6.24 6.24 0 0 0-6.237 6.242 6.24 6.24 0 0 0 6.237 6.242Zm0-3.448a2.793 2.793 0 0 0 2.791-2.794 2.793 2.793 0 1 0-2.791 2.794Z" clip-rule="evenodd"/><path fill="url(#d)" fill-rule="evenodd" d="M19.335 42.889a6.24 6.24 0 0 0 6.237-6.242 6.24 6.24 0 0 0-6.237-6.242 6.24 6.24 0 0 0-6.237 6.242 6.24 6.24 0 0 0 6.237 6.242Zm0-3.448a2.793 2.793 0 0 0 2.791-2.794 2.793 2.793 0 1 0-2.791 2.794Z" clip-rule="evenodd"/><path fill="#fff" d="M12.741 31.1c.834-2.037 3.49-5.57 8.494-5.57 6.594 0 10.99 5.707 10.99 11.592 0 1.605-.951 4.161-.951 4.161 2.732 0 5.821 1.665 5.821 3.21-2.982.352-8.668.587-15.53.481a8.622 8.622 0 0 0 6.383-8.327c0-4.76-3.857-8.62-8.613-8.62A8.592 8.592 0 0 0 12.74 31.1Z"/><path fill="url(#e)" d="M12.741 31.1c.834-2.037 3.49-5.57 8.494-5.57 6.594 0 10.99 5.707 10.99 11.592 0 1.605-.951 4.161-.951 4.161 2.732 0 5.821 1.665 5.821 3.21-2.982.352-8.668.587-15.53.481a8.622 8.622 0 0 0 6.383-8.327c0-4.76-3.857-8.62-8.613-8.62A8.592 8.592 0 0 0 12.74 31.1Z"/><defs><linearGradient id="a" x1="40.588" x2="4.147" y1="3.882" y2="44.559" gradientUnits="userSpaceOnUse"><stop stop-color="#FCA336"/><stop offset="1" stop-color="#FC7625"/></linearGradient><linearGradient id="b" x1="40.588" x2="4.147" y1="3.882" y2="44.559" gradientUnits="userSpaceOnUse"><stop stop-color="#FCA336"/><stop offset="1" stop-color="#FC7625"/></linearGradient><linearGradient id="c" x1="40.588" x2="4.147" y1="3.882" y2="44.559" gradientUnits="userSpaceOnUse"><stop stop-color="#FCA336"/><stop offset="1" stop-color="#FC7625"/></linearGradient><linearGradient id="d" x1="40.588" x2="4.147" y1="3.882" y2="44.559" gradientUnits="userSpaceOnUse"><stop stop-color="#FCA336"/><stop offset="1" stop-color="#FC7625"/></linearGradient><linearGradient id="e" x1="40.588" x2="4.147" y1="3.882" y2="44.559" gradientUnits="userSpaceOnUse"><stop stop-color="#FCA336"/><stop offset="1" stop-color="#FC7625"/></linearGradient></defs></svg>
